X:109
T:The Wizard of Portobello (Johnny Cunningham's Fancy) 
R:reel
C: 2003, 2010 L.E. McCullough 
M:4/4
L:1/8
K:D 
FG|:A~D3 F~A3|G~B3 AFED|~B3B ~B2de|~f3e ed (3Bcd|
A~D3 F~A3|G~B3 AFAB|d~B3 FBdf|1 eA (3cBA d2FG:|2 eA (3cBA d2de|]
|:~f3e edBA|(3fga fd ed (3Bcd|~e3f eAce|gAfA egfe|
~f3e edBA|FBdf gfed|eAce gfed|1 eA (3cBA d2de:|2 eA (3cBA d2FG|]

